X:63
T:Mary Bergin's
M:C|
L:1/8
Q:120
R:Reel (Key of Ador)
K:Ador
"Am"A2EA (3Bce ed | "Em"BG ~G2 eGdG | "Am"EA (3Bce a2ed |1 "Em"BedB BAAG :|2 "Em"BedB BA ~A2 ||
"Am"a2ea ~a2 ba | "G"g2ef ~g3b | "Am"a2ea ~a2 ba | "Em"gedB "G"EA ~A2 |
"Am"a2ea ~a2 ba | "G"g2ef ~g3a | "Em"~b3a gbag | "G"gedB eBdB |]
